@extra/phlat-icons/emblems-24/emblem-synchronizing.svg

<?xml version="1.0" encoding="UTF-8" standalone="no"?>
<svg
   xmlns:dc="http://purl.org/dc/elements/1.1/"
   xmlns:cc="http://creativecommons.org/ns#"
   xmlns:rdf="http://www.w3.org/1999/02/22-rdf-syntax-ns#"
   xmlns:svg="http://www.w3.org/2000/svg"
   xmlns="http://www.w3.org/2000/svg"
   xmlns:sodipodi="http://sodipodi.sourceforge.net/DTD/sodipodi-0.dtd"
   xmlns:inkscape="http://www.inkscape.org/namespaces/inkscape"
   width="16.000013"
   version="1.1"
   id="svg7384"
   height="16"
   sodipodi:docname="emblem-synchronizing.svg"
   inkscape:version="0.92.1 r15371">
  <sodipodi:namedview
     pagecolor="#ffffff"
     bordercolor="#666666"
     borderopacity="1"
     objecttolerance="10"
     gridtolerance="10"
     guidetolerance="10"
     inkscape:pageopacity="0"
     inkscape:pageshadow="2"
     inkscape:window-width="1998"
     inkscape:window-height="720"
     id="namedview18"
     showgrid="true"
     inkscape:zoom="27.523143"
     inkscape:cx="0.29168544"
     inkscape:cy="8"
     inkscape:window-x="533"
     inkscape:window-y="89"
     inkscape:window-maximized="0"
     inkscape:current-layer="layer15">
    <inkscape:grid
       type="xygrid"
       id="grid4495" />
  </sodipodi:namedview>
  <metadata
     id="metadata90">
    <rdf:RDF>
      <cc:Work
         rdf:about="">
        <dc:format>image/svg+xml</dc:format>
        <dc:type
           rdf:resource="http://purl.org/dc/dcmitype/StillImage" />
        <dc:title>Gnome Symbolic Icon Theme</dc:title>
      </cc:Work>
    </rdf:RDF>
  </metadata>
  <title
     id="title9167">Gnome Symbolic Icon Theme</title>
  <defs
     id="defs7386" />
  <g
     transform="translate(-501.0002,-381)"
     style="display:inline"
     id="layer9" />
  <g
     transform="translate(-501.0002,-381)"
     style="display:inline"
     id="layer10" />
  <g
     transform="translate(-501.0002,-381)"
     id="layer11" />
  <g
     transform="translate(-501.0002,-381)"
     style="display:inline"
     id="layer13" />
  <g
     transform="translate(-501.0002,-381)"
     id="layer14" />
  <g
     transform="translate(-501.0002,-381)"
     style="display:inline"
     id="layer15">
    <path
       sodipodi:type="inkscape:offset"
       inkscape:radius="0.97327572"
       inkscape:original="M 13.90625 0.96875 C 13.86395 0.97675 13.82215 0.9869 13.78125 1 C 13.3341 1.10014 12.98897 1.5419 13 2 L 13 3.6875 C 13.000319 3.7921109 12.992688 3.8410872 12.992188 3.9296875 C 11.683855 2.7445492 9.9362865 2 8 2 C 4.69945 2 1.90858 4.12571 1 7 L 3.1914062 7 C 4.0009463 5.23499 5.84838 4 8 4 C 9.1755229 4 10.252725 4.3776989 11.126953 5 L 10 5 C 9.47642 5.00005 9.00005 5.47642 9 6 C 8.992 6.0726 8.992 6.14613 9 6.21875 L 9 7 L 12.808594 7 L 15 7 L 15 6 L 15 2 C 15.006 1.9377 15.006 1.87482 15 1.8125 L 15 1 L 14.1875 1 C 14.0959 0.9764 14.00085 0.96575 13.90625 0.96875 z M 1 9 L 1 10 L 1 14 C 0.994 14.0623 0.994 14.12518 1 14.1875 L 1 15 L 1.8125 15 C 1.9041 15.0236 1.99915 15.03425 2.09375 15.03125 C 2.13605 15.02325 2.17785 15.0131 2.21875 15 C 2.6659 14.89986 3.01103 14.4581 3 14 L 3 12.3125 C 2.9996476 12.207624 3.0073125 12.159098 3.0078125 12.070312 C 4.3161349 13.255452 6.0637135 14 8 14 C 11.30055 14 14.09142 11.87429 15 9 L 12.808594 9 C 11.999054 10.76501 10.15162 12 8 12 C 6.8244771 12 5.7472745 11.622301 4.8730469 11 L 6 11 C 6.52358 10.99995 6.99995 10.52358 7 10 C 7.008 9.9274 7.008 9.85387 7 9.78125 L 7 9 L 3.1914062 9 L 1 9 z "
       style="color:#f1f2f2;font-style:normal;font-variant:normal;font-weight:normal;font-stretch:normal;font-size:medium;line-height:normal;font-family:Sans;-inkscape-font-specification:Sans;text-indent:0;text-align:start;text-decoration:none;text-decoration-line:none;letter-spacing:normal;word-spacing:normal;text-transform:none;writing-mode:lr-tb;direction:ltr;baseline-shift:baseline;text-anchor:start;display:inline;overflow:visible;visibility:visible;fill:#333333;fill-opacity:1;stroke:none;stroke-width:2;marker:none;enable-background:accumulate"
       id="path4498"
       d="m 13.875,-0.00390625 a 0.97337305,0.97337305 0 0 0 -0.150391,0.015625 c -0.04873,0.0092165 -0.102964,0.02475433 -0.15625,0.0390625 -0.93859,0.21019883 -1.564168,1.01108815 -1.541015,1.97265625 V 2.2011719 C 10.819506,1.5241628 9.4943202,1.0273438 8,1.0273438 c -3.7184403,0 -6.88808,2.390744 -7.92773438,5.6796874 A 0.97337305,0.97337305 0 0 0 1,7.9726562 H 3.1914062 A 0.97337305,0.97337305 0 0 0 4.0761719,7.40625 C 4.7235091,5.9948848 6.2208081,4.9726562 8,4.9726562 c 0.1480788,0 0.248953,0.110914 0.3925781,0.125 -0.1549427,0.2808904 -0.3566778,0.5370672 -0.359375,0.8886719 -0.00704,0.1128533 -0.012407,0.2272165 0,0.3398438 L 8.0273438,6.21875 V 7 A 0.97337305,0.97337305 0 0 0 9,7.9726562 H 12.808594 15 A 0.97337305,0.97337305 0 0 0 15.972656,7 V 6 2 l -0.0039,0.09375 c 0.01199,-0.1245039 0.01198,-0.2505154 0,-0.375 l 0.0039,0.09375 V 1 A 0.97337305,0.97337305 0 0 0 15,0.02734375 h -0.8125 l 0.242188,0.02929687 C 14.249069,0.01010564 14.06318,-0.00987392 13.875,-0.00390625 Z M 1,8.0273438 A 0.97337305,0.97337305 0 0 0 0.02734375,9 v 1 4 L 0.03125,13.90625 c -0.01199075,0.124504 -0.01198504,0.250515 0,0.375 L 0.02734375,14.1875 V 15 A 0.97337305,0.97337305 0 0 0 1,15.972656 h 0.8125 l -0.2421875,-0.0293 c 0.1806189,0.04654 0.366507,0.06652 0.5546875,0.06055 a 0.97337305,0.97337305 0 0 0 0.1503906,-0.01563 c 0.048732,-0.0092 0.1029648,-0.02475 0.15625,-0.03906 0.9385901,-0.210199 1.564168,-1.011088 1.5410156,-1.972657 V 13.798828 C 5.1804946,14.475838 6.5056801,14.972656 8,14.972656 c 3.71844,0 6.88808,-2.390744 7.927734,-5.6796872 A 0.97337305,0.97337305 0 0 0 15,8.0273438 H 12.808594 A 0.97337305,0.97337305 0 0 0 11.923828,8.59375 C 11.276491,10.005115 9.7791919,11.027344 8,11.027344 c -0.1480788,0 -0.248953,-0.110914 -0.3925781,-0.125 0.1549427,-0.280891 0.3566778,-0.537067 0.359375,-0.888672 0.00704,-0.1128534 0.012407,-0.2272166 0,-0.3398439 L 7.9726562,9.78125 V 9 A 0.97337305,0.97337305 0 0 0 7,8.0273438 H 3.1914062 Z"
       transform="translate(501.0002,381)" />
    <path
       style="color:#f1f2f2;font-style:normal;font-variant:normal;font-weight:normal;font-stretch:normal;font-size:medium;line-height:normal;font-family:Sans;-inkscape-font-specification:Sans;text-indent:0;text-align:start;text-decoration:none;text-decoration-line:none;letter-spacing:normal;word-spacing:normal;text-transform:none;writing-mode:lr-tb;direction:ltr;baseline-shift:baseline;text-anchor:start;display:inline;overflow:visible;visibility:visible;fill:#f1f2f2;fill-opacity:1;stroke:none;stroke-width:2;marker:none;enable-background:accumulate"
       d="M 13.90625 0.96875 C 13.86395 0.97675 13.82215 0.9869 13.78125 1 C 13.3341 1.10014 12.98897 1.5419 13 2 L 13 3.6875 C 13.000319 3.7921109 12.992711 3.8410872 12.992188 3.9296875 C 11.683868 2.7445492 9.9362865 2 8 2 C 4.69945 2 1.90858 4.12571 1 7 L 3.1914062 7 C 4.0009463 5.23499 5.84838 4 8 4 C 9.1755229 4 10.252725 4.3776989 11.126953 5 L 10 5 C 9.47642 5.00005 9.00005 5.47642 9 6 C 8.992 6.0726 8.992 6.14613 9 6.21875 L 9 7 L 12.808594 7 L 15 7 L 15 6 L 15 2 C 15.006 1.9377 15.006 1.87482 15 1.8125 L 15 1 L 14.1875 1 C 14.0959 0.9764 14.00085 0.96575 13.90625 0.96875 z M 1 9 L 1 10 L 1 14 C 0.994 14.0623 0.994 14.12518 1 14.1875 L 1 15 L 1.8125 15 C 1.9041 15.0236 1.99915 15.03425 2.09375 15.03125 C 2.13605 15.02325 2.17785 15.0131 2.21875 15 C 2.6659 14.89986 3.01103 14.4581 3 14 L 3 12.3125 C 2.9996476 12.207624 3.0073114 12.159098 3.0078125 12.070312 C 4.3161324 13.255451 6.0637135 14 8 14 C 11.30055 14 14.09142 11.87429 15 9 L 12.808594 9 C 11.999054 10.76501 10.15162 12 8 12 C 6.8244771 12 5.7472745 11.622301 4.8730469 11 L 6 11 C 6.52358 10.99995 6.99995 10.52358 7 10 C 7.008 9.9274 7.008 9.85387 7 9.78125 L 7 9 L 3.1914062 9 L 1 9 z "
       transform="translate(501.0002,381)"
       id="path4597-1" />
  </g>
  <g
     transform="translate(-501.0002,-381)"
     style="display:inline"
     id="g71291" />
  <g
     transform="translate(-501.0002,-381)"
     style="display:inline"
     id="g4953" />
  <g
     transform="translate(-501.0002,-381)"
     style="display:inline"
     id="layer12" />
</svg>

<svg xmlns="http://www.w3.org/2000/svg" width="16" height="16">
    <g color="#f1f2f2" font-weight="400" font-family="Sans">
        <path style="line-height:normal;-inkscape-font-specification:Sans;text-indent:0;text-align:start;text-decoration-line:none;text-transform:none;marker:none" d="M13.875-.004a.973.973 0 0 0-.15.016c-.05.009-.103.024-.157.039a1.94 1.94 0 0 0-1.54 1.972v.178C10.82 1.524 9.493 1.027 8 1.027c-3.718 0-6.888 2.391-7.928 5.68A.973.973 0 0 0 1 7.973h2.191a.973.973 0 0 0 .885-.567C4.724 5.995 6.221 4.973 8 4.973c.148 0 .249.11.393.125-.155.28-.357.537-.36.888a1.983 1.983 0 0 0 0 .34l-.006-.107V7A.973.973 0 0 0 9 7.973h6A.973.973 0 0 0 15.973 7V2l-.004.094a1.96 1.96 0 0 0 0-.375l.004.093V1A.973.973 0 0 0 15 .027h-.813l.243.03a1.968 1.968 0 0 0-.555-.06zM1 8.027A.973.973 0 0 0 .027 9v5l.004-.094a1.96 1.96 0 0 0 0 .375l-.004-.094V15a.973.973 0 0 0 .973.973h.813l-.243-.03c.18.047.367.067.555.06a.973.973 0 0 0 .15-.015c.05-.009.103-.024.157-.039a1.94 1.94 0 0 0 1.54-1.972v-.178c1.208.677 2.534 1.174 4.028 1.174 3.718 0 6.888-2.391 7.928-5.68A.973.973 0 0 0 15 8.027h-2.191a.973.973 0 0 0-.885.567c-.648 1.411-2.145 2.433-3.924 2.433-.148 0-.249-.11-.393-.125.155-.28.357-.537.36-.888a1.983 1.983 0 0 0 0-.34l.006.107V9A.973.973 0 0 0 7 8.027H3.191z" overflow="visible" fill="#333"/>
        <path style="line-height:normal;-inkscape-font-specification:Sans;text-indent:0;text-align:start;text-decoration-line:none;text-transform:none;marker:none" d="M13.906.969a1.048 1.048 0 0 0-.125.031c-.447.1-.792.542-.781 1v1.688c0 .104-.007.153-.008.242A7.416 7.416 0 0 0 8 2C4.7 2 1.909 4.126 1 7h2.191C4.001 5.235 5.848 4 8 4c1.176 0 2.253.378 3.127 1H10c-.524 0-1 .476-1 1a1 1 0 0 0 0 .219V7h6V2a.979.979 0 0 0 0-.188V1h-.813a1.002 1.002 0 0 0-.28-.031zM1 9v5a.979.979 0 0 0 0 .188V15h.813c.091.024.186.034.28.031.043-.008.085-.018.126-.031.447-.1.792-.542.781-1v-1.688c0-.104.007-.153.008-.242A7.416 7.416 0 0 0 8 14c3.3 0 6.091-2.126 7-5h-2.191c-.81 1.765-2.657 3-4.809 3a5.374 5.374 0 0 1-3.127-1H6c.524 0 1-.476 1-1a1 1 0 0 0 0-.219V9H1z" overflow="visible" fill="#f1f2f2"/>
    </g>
</svg>
